img/icons/paywall/icon-materials.svg

<svg width="28" height="28" viewBox="0 0 28 28" fill="none" xmlns="http://www.w3.org/2000/svg">
<path d="M19.0956 27.5879H8.10662C7.35172 27.5879 6.63971 27.4421 5.97059 27.1504C5.30147 26.8587 4.72243 26.4641 4.23346 25.9666C3.74449 25.469 3.35417 24.8943 3.0625 24.2423C2.77083 23.5732 2.625 22.8612 2.625 22.1063V6.71657C2.625 5.96166 2.77083 5.24965 3.0625 4.58054C3.35417 3.92858 3.74449 3.35382 4.23346 2.85627C4.72243 2.35872 5.30147 1.96412 5.97059 1.67245C6.63971 1.38078 7.35172 1.23495 8.10662 1.23495H19.0956C19.8505 1.23495 20.5625 1.38078 21.2316 1.67245C21.9007 1.96412 22.4841 2.35872 22.9816 2.85627C23.4792 3.35382 23.8652 3.92858 24.1397 4.58054C24.4314 5.24965 24.5772 5.96166 24.5772 6.71657V22.1063C24.5772 22.8612 24.4314 23.5732 24.1397 24.2423C23.8652 24.8943 23.4792 25.469 22.9816 25.9666C22.4841 26.4641 21.9007 26.8587 21.2316 27.1504C20.5625 27.4421 19.8505 27.5879 19.0956 27.5879ZM8.10662 3.42245C7.1973 3.42245 6.42096 3.74414 5.77757 4.38752C5.13419 5.0309 4.8125 5.80725 4.8125 6.71657V22.1063C4.8125 23.0156 5.13419 23.7919 5.77757 24.4353C6.42096 25.0787 7.1973 25.4004 8.10662 25.4004H19.0956C20.0049 25.4004 20.7812 25.0787 21.4246 24.4353C22.068 23.7919 22.3897 23.0156 22.3897 22.1063V6.71657C22.3897 5.80725 22.068 5.0309 21.4246 4.38752C20.7812 3.74414 20.0049 3.42245 19.0956 3.42245H8.10662ZM20.2022 7.82318C20.2022 7.51436 20.095 7.25272 19.8805 7.03826C19.6661 6.8238 19.4044 6.71657 19.0956 6.71657H14.6949C14.4032 6.71657 14.1501 6.8238 13.9357 7.03826C13.7212 7.25272 13.614 7.51436 13.614 7.82318C13.614 8.13201 13.7212 8.39365 13.9357 8.60811C14.1501 8.82257 14.4032 8.9298 14.6949 8.9298H19.0956C19.4044 8.9298 19.6661 8.82257 19.8805 8.60811C20.095 8.39365 20.2022 8.13201 20.2022 7.82318ZM20.2022 14.4114C20.2022 14.1026 20.095 13.841 19.8805 13.6265C19.6661 13.412 19.4044 13.3048 19.0956 13.3048H14.6949C14.4032 13.3048 14.1501 13.412 13.9357 13.6265C13.7212 13.841 13.614 14.1026 13.614 14.4114C13.614 14.7202 13.7212 14.9819 13.9357 15.1963C14.1501 15.4108 14.4032 15.518 14.6949 15.518H19.0956C19.4044 15.518 19.6661 15.4108 19.8805 15.1963C20.095 14.9819 20.2022 14.7202 20.2022 14.4114ZM20.2022 20.9997C20.2022 20.6908 20.095 20.4292 19.8805 20.2147C19.6661 20.0003 19.4044 19.893 19.0956 19.893H14.6949C14.4032 19.893 14.1501 20.0003 13.9357 20.2147C13.7212 20.4292 13.614 20.6908 13.614 20.9997C13.614 21.3085 13.7212 21.5701 13.9357 21.7846C14.1501 21.999 14.4032 22.1063 14.6949 22.1063H19.0956C19.4044 22.1063 19.6661 21.999 19.8805 21.7846C20.095 21.5701 20.2022 21.3085 20.2022 20.9997ZM11.4007 8.9298V6.71657C11.4007 6.4249 11.2935 6.17184 11.079 5.95738C10.8646 5.74291 10.6115 5.63568 10.3199 5.63568H8.10662C7.81495 5.63568 7.56189 5.74291 7.34743 5.95738C7.13297 6.17184 7.02574 6.4249 7.02574 6.71657V8.9298C7.02574 9.22147 7.13297 9.47453 7.34743 9.68899C7.56189 9.90345 7.81495 10.0107 8.10662 10.0107H10.3199C10.6115 10.0107 10.8646 9.90345 11.079 9.68899C11.2935 9.47453 11.4007 9.22147 11.4007 8.9298ZM11.4007 15.518V13.3048C11.4007 13.0131 11.2935 12.7601 11.079 12.5456C10.8646 12.3312 10.6115 12.2239 10.3199 12.2239H8.10662C7.81495 12.2239 7.56189 12.3312 7.34743 12.5456C7.13297 12.7601 7.02574 13.0131 7.02574 13.3048V15.518C7.02574 15.8097 7.13297 16.0628 7.34743 16.2772C7.56189 16.4917 7.81495 16.5989 8.10662 16.5989H10.3199C10.6115 16.5989 10.8646 16.4917 11.079 16.2772C11.2935 16.0628 11.4007 15.8097 11.4007 15.518ZM11.4007 22.1063V19.893C11.4007 19.6014 11.2935 19.3483 11.079 19.1338C10.8646 18.9194 10.6115 18.8122 10.3199 18.8122H8.10662C7.81495 18.8122 7.56189 18.9194 7.34743 19.1338C7.13297 19.3483 7.02574 19.6014 7.02574 19.893V22.1063C7.02574 22.3979 7.13297 22.651 7.34743 22.8655C7.56189 23.0799 7.81495 23.1872 8.10662 23.1872H10.3199C10.6115 23.1872 10.8646 23.0799 11.079 22.8655C11.2935 22.651 11.4007 22.3979 11.4007 22.1063Z" fill="#C47A2C"/>
</svg>

<svg width="28" height="28" fill="none" xmlns="http://www.w3.org/2000/svg"><path d="M19.096 27.588H8.106a5.287 5.287 0 01-2.135-.438 5.475 5.475 0 01-1.738-1.183 5.84 5.84 0 01-1.17-1.725 5.287 5.287 0 01-.438-2.136V6.716c0-.754.146-1.466.438-2.135a5.84 5.84 0 011.17-1.725 5.474 5.474 0 011.738-1.184 5.287 5.287 0 012.136-.437h10.989a5.3 5.3 0 012.136.437 5.63 5.63 0 011.75 1.184 5.352 5.352 0 011.158 1.725c.291.669.437 1.38.437 2.136v15.39c0 .754-.146 1.466-.437 2.135a5.352 5.352 0 01-1.158 1.725 5.63 5.63 0 01-1.75 1.183 5.287 5.287 0 01-2.136.438zM8.106 3.422a3.17 3.17 0 00-2.328.966 3.174 3.174 0 00-.965 2.329v15.39c0 .909.321 1.685.965 2.328.643.644 1.42.965 2.329.965h10.989c.909 0 1.685-.321 2.329-.965.643-.643.965-1.42.965-2.329V6.716c0-.909-.322-1.685-.965-2.328a3.174 3.174 0 00-2.33-.966H8.108zm12.096 4.401c0-.309-.107-.57-.322-.785a1.068 1.068 0 00-.784-.321h-4.401c-.292 0-.545.107-.76.321a1.068 1.068 0 00-.321.785c0 .309.107.57.322.785.214.215.467.322.759.322h4.4c.31 0 .571-.107.786-.322.214-.214.321-.476.321-.785zm0 6.588c0-.308-.107-.57-.322-.784a1.068 1.068 0 00-.784-.322h-4.401c-.292 0-.545.107-.76.322a1.068 1.068 0 00-.321.784c0 .31.107.57.322.785.214.215.467.322.759.322h4.4c.31 0 .571-.107.786-.322.214-.214.321-.476.321-.785zm0 6.589c0-.31-.107-.57-.322-.785a1.068 1.068 0 00-.784-.322h-4.401c-.292 0-.545.107-.76.322a1.068 1.068 0 00-.321.785c0 .308.107.57.322.785.214.214.467.321.759.321h4.4c.31 0 .571-.107.786-.321.214-.215.321-.477.321-.785zM11.401 8.93V6.717c0-.292-.107-.545-.322-.76a1.038 1.038 0 00-.76-.321H8.108c-.292 0-.545.107-.76.321a1.038 1.038 0 00-.321.76V8.93c0 .291.107.545.321.759.215.214.468.322.76.322h2.213c.291 0 .545-.108.759-.322a1.04 1.04 0 00.322-.76zm0 6.588v-2.213c0-.292-.107-.545-.322-.76a1.038 1.038 0 00-.76-.321H8.108c-.292 0-.545.107-.76.322a1.038 1.038 0 00-.321.759v2.213c0 .292.107.545.321.76.215.214.468.32.76.32h2.213c.291 0 .545-.106.759-.32.214-.215.322-.468.322-.76zm0 6.588v-2.213c0-.292-.107-.545-.322-.76a1.038 1.038 0 00-.76-.32H8.108a1.04 1.04 0 00-.76.32 1.038 1.038 0 00-.321.76v2.213c0 .292.107.545.321.76.215.214.468.321.76.321h2.213c.291 0 .545-.107.759-.322.214-.214.322-.467.322-.759z" fill="#C47A2C"/></svg>
